twotone/svg/settings_input_svideo.svg

<svg xmlns="http://www.w3.org/2000/svg" width="24" height="24"><path fill="none" d="M0 0h24v24H0V0z"/><g fill="currentColor"><path opacity=".3" d="M12 3c-4.96 0-9 4.04-9 9s4.04 9 9 9 9-4.04 9-9-4.04-9-9-9zm-7 8.5c0-.83.67-1.5 1.5-1.5s1.5.67 1.5 1.5S7.33 13 6.5 13 5 12.33 5 11.5zM8.5 18c-.83 0-1.5-.67-1.5-1.5S7.67 15 8.5 15s1.5.67 1.5 1.5S9.33 18 8.5 18zm2-10C9.67 8 9 7.33 9 6.5S9.67 5 10.5 5h3c.83 0 1.5.67 1.5 1.5S14.33 8 13.5 8h-3zm5 10c-.83 0-1.5-.67-1.5-1.5s.67-1.5 1.5-1.5 1.5.67 1.5 1.5-.67 1.5-1.5 1.5zm2-5c-.83 0-1.5-.67-1.5-1.5s.67-1.5 1.5-1.5 1.5.67 1.5 1.5-.67 1.5-1.5 1.5z"/><path d="M15 6.5c0-.83-.67-1.5-1.5-1.5h-3C9.67 5 9 5.67 9 6.5S9.67 8 10.5 8h3c.83 0 1.5-.67 1.5-1.5z"/><circle cx="15.5" cy="16.5" r="1.5"/><circle cx="17.5" cy="11.5" r="1.5"/><path d="M12 1C5.93 1 1 5.93 1 12s4.93 11 11 11 11-4.93 11-11S18.07 1 12 1zm0 20c-4.96 0-9-4.04-9-9s4.04-9 9-9 9 4.04 9 9-4.04 9-9 9z"/><circle cx="6.5" cy="11.5" r="1.5"/><circle cx="8.5" cy="16.5" r="1.5"/></g></svg>

<?xml version="1.0" encoding="utf-8"?>
<!-- Generator: Adobe Illustrator 19.1.0, SVG Export Plug-In . SVG Version: 6.00 Build 0)  -->
<svg version="1.1" xmlns="http://www.w3.org/2000/svg" xmlns:xlink="http://www.w3.org/1999/xlink" x="0px" y="0px" width="24px"
	 height="24px" viewBox="0 0 24 24" enable-background="new 0 0 24 24" xml:space="preserve">
<g id="Bounding_Boxes">
	<g id="ui_x5F_spec_x5F_header_copy_3" display="none">
	</g>
	<path fill="none" d="M0,0h24v24H0V0z"/>
</g>
<g id="Duotone" fill="currentColor">
	<g id="ui_x5F_spec_x5F_header_copy_2" display="none">
	</g>
	<g>
		<path opacity="0.3" d="M12,3c-4.96,0-9,4.04-9,9c0,4.96,4.04,9,9,9s9-4.04,9-9C21,7.04,16.96,3,12,3z M5,11.5
			C5,10.67,5.67,10,6.5,10S8,10.67,8,11.5C8,12.33,7.33,13,6.5,13S5,12.33,5,11.5z M8.5,18C7.67,18,7,17.33,7,16.5
			C7,15.67,7.67,15,8.5,15s1.5,0.67,1.5,1.5C10,17.33,9.33,18,8.5,18z M10.5,8C9.67,8,9,7.33,9,6.5C9,5.67,9.67,5,10.5,5h3
			C14.33,5,15,5.67,15,6.5C15,7.33,14.33,8,13.5,8H10.5z M15.5,18c-0.83,0-1.5-0.67-1.5-1.5c0-0.83,0.67-1.5,1.5-1.5
			s1.5,0.67,1.5,1.5C17,17.33,16.33,18,15.5,18z M17.5,13c-0.83,0-1.5-0.67-1.5-1.5c0-0.83,0.67-1.5,1.5-1.5s1.5,0.67,1.5,1.5
			C19,12.33,18.33,13,17.5,13z"/>
		<path d="M15,6.5C15,5.67,14.33,5,13.5,5h-3C9.67,5,9,5.67,9,6.5C9,7.33,9.67,8,10.5,8h3C14.33,8,15,7.33,15,6.5z"/>
		<circle cx="15.5" cy="16.5" r="1.5"/>
		<circle cx="17.5" cy="11.5" r="1.5"/>
		<path d="M12,1C5.93,1,1,5.93,1,12s4.93,11,11,11s11-4.93,11-11S18.07,1,12,1z M12,21c-4.96,0-9-4.04-9-9c0-4.96,4.04-9,9-9
			s9,4.04,9,9C21,16.96,16.96,21,12,21z"/>
		<circle cx="6.5" cy="11.5" r="1.5"/>
		<circle cx="8.5" cy="16.5" r="1.5"/>
	</g>
</g>
</svg>
